!!!!SEGMENT: pl-kk--kk-i-6--036-005_anonim--missa-in-defectu-agnus-dei.krn
!!!cenid: 16xx:1015
!!!COM: Anonim
!!!COM-rismid: pe30004985
!!!CDT:
!!!CNT:
!!!OTL: Missa in defectu – Agnus Dei
!!!PDT:
!!!AGN: Sacred; Mass
!!!SMS-siglum: PL-Kk
!!!SMS-shelfmark: Kk.I.6
!!!SMS-shelfwork: 036-005 M
!!!SMS-variant:
!!!SMS-altvar:
!!!NIFC-rismid: 1001136224
!!!URL-scan: http://repozytorium.nifc.pl/skany/pl-kk-nut--i-6
!!!ONB-nifc: UWAGA: C (brak), T (skan 0154-0158, s. 112-120), B (skan 0264-0268, s. 110-119) Części Mszy; 1. Kyrie, 2. Et in terra, 3. Patrem, 4. Sanctus, 5. Agnus Dei
**kern	**text	**kern	**text	**kern
*part3	*part3	*part2	*part2	*part1
*staff3	*staff3	*staff2	*staff2	*staff1
*I"Baſsus.	*	*I"Tenor.	*	*I"Cantus.
*I'B	*	*I'T	*	*I'S
*clefF4	*	*clefC4	*	*clefC4
*k[]	*	*k[]	*	*k[]
*M2/1	*	*M2/1	*	*M2/1
*met(c|)	*	*met(c|)	*	*met(c|)
=1	=1	=1	=1	=1
!	!	!	!	!LO:TX:t=P:problem:brak partii
*all\right	*	*all\right	*	*
0r	.	00r	.	0ryy
=2-	=2-	=2-	=2-	=2-
1A\	A-	.	.	0ryy
1E\	-gnus	.	.	.
=3-	=3-	=3-	=3-	=3-
1G\	DE-	0r	.	0ryy
2F#X\	-I	.	.	.
2F#\	qui	.	.	.
=4-	=4-	=4-	=4-	=4-
2A\	tol-	1r	.	0ryy
4A\	-lis	.	.	.
4A\	pec-	.	.	.
2G\	-ca-	1e\	A-	.
2E\	-ta	.	.	.
=5-	=5-	=5-	=5-	=5-
1Fny\	mu(n)-	1A\	-gnus	0ryy
2C/	.	1c\	DE-	.
2C/	-di	.	.	.
=6-	=6-	=6-	=6-	=6-
1E\	qui	2B\	-I	0ryy
.	.	2B\	qui	.
1BB/	tol-	1d\	tol-	.
=7-	=7-	=7-	=7-	=7-
1D\	-lis	2A/	-lis	0ryy
.	.	2A/	pec-	.
*lig	*	*	*	*
1C/	pec-	1c\	-ca-	.
=8-	=8-	=8-	=8-	=8-
*col	*	*	*	*
2.E\	.	2B\	-ta	0ryy
.	.	2e\	pec-	.
*Xlig	*	*	*	*
4F\	.	.	.	.
*Xcol	*	*	*	*
2G\	-ca-	4c\	-ca-	.
.	.	4G/	ta	.
2G\	-ta	1c\	mun-	.
=9-	=9-	=9-	=9-	=9-
!LO:SIC:v:t=custos C	!	!	!	!
1G\	mun-	.	.	0ryy
.	.	2B\	.	.
!LO:LB:g=original	!	!	!	!
2C/	-di	1c\	-di	.
1C/	mi-	.	.	.
=10-	=10-	=10-	=10-	=10-
.	.	1r	.	0ryy
2BB/	-ſe-	.	.	.
1AA/	-re-	2r	.	.
.	.	1e\	mi-	.
=11-	=11-	=11-	=11-	=11-
1GG#X/	-re	.	.	0ryy
!	!	!LO:SIC:v:t=custos c	!	!
.	.	2d\	-ſe-	.
!	!	!LO:LB:g=original	!	!
0AA/	no-	2c\	-re-	.
.	.	2B\	-re	.
=12-	=12-	=12-	=12-	=12-
.	.	1A\	no-	0ryy
!LO:N:vis=0	!	!LO:N:vis=0	!	!
1E\;<	-bis	1G#X/;	-bis	.
=13||	=13||	=13||	=13||	=13||
*M2/1	*	*M2/1	*	*
*met(c|)	*	*met(c|)	*	*
1E\	A-	0rA	.	0ryy
2F#X\	-gnus	.	.	.
1A\	DE-	.	.	.
=14-	=14-	=14-	=14-	=14-
.	.	1rA	.	0ryy
2G\	-[[I]]-	.	.	.
1Fny\	.	2rF	.	.
.	.	2A/	A-	.
=15-	=15-	=15-	=15-	=15-
2E\	-I	2B\	-gnus	0ryy
2C/	qui	1e\	DE-	.
2AA/	tol-	.	.	.
2BB/	.	2d#X\	.	.
=16-	=16-	=16-	=16-	=16-
2C/	-lis	2e\	-I	0ryy
2E\	pec-	2e\	qui	.
2F#X\	-ca-	2dny\	tol-	.
!LO:SIC:v:t=custos E	!	!	!	!
2G\	-ta	4d\	-lis	.
.	.	4d\	pec-	.
=17-	=17-	=17-	=17-	=17-
!LO:LB:g=original	!	!	!	!
2E\	mun-	2G/	-ca-	0ryy
2D/	.	2F#X/	-ta	.
1E\	.	1G/	mun-	.
=18-	=18-	=18-	=18-	=18-
!	!	!LO:SIC:v:t=custos d	!	!
1D\	-di	1F#X/	-di	0ryy
!	!	!LO:LB:g=original	!	!
2.E\	mi-	0rA	.	.
4E\	-ſe-	.	.	.
=19-	=19-	=19-	=19-	=19-
4F#X\	-re-	.	.	0ryy
4D/	-re	.	.	.
1G\	no-	.	.	.
.	.	2rF	.	.
2F#X\	.	2.d\	mi-	.
=20-	=20-	=20-	=20-	=20-
[1G\	bis	.	.	0ryy
.	.	4d\	-ſe-	.
.	.	1c\	-re-	.
2G\]	.	.	.	.
*	*ij	*	*	*
1G\	mi-	2B\	-re	.
=21-	=21-	=21-	=21-	=21-
*	*	*	*ij	*
.	.	2.A/	mi-	0ryy
2Fny\	-ſe-	.	.	.
.	.	4A/	-ſe-	.
2E\	-re-	2G#X/	-re-	.
2AA/	-re	2A/	-re	.
*	*	*	*Xij	*
=22-	=22-	=22-	=22-	=22-
0E\	no-	2B\	no-	0ryy
.	.	2c\	.	.
.	.	1B\	.	.
=23-	=23-	=23-	=23-	=23-
0AA/;	-bis	0c#X\;<	-bis.	0ryy
*	*Xij	*	*	*
=24||	=24||	=24||	=24||	=24||
*M2/1	*	*M2/1	*	*
*met(c|)	*	*met(c|)	*	*
!LO:PB:g=original	!	!	!	!
0r	.	1A\	A-	0ryy
.	.	2E/	-gnus	.
.	.	2e\	DE-	.
=25-	=25-	=25-	=25-	=25-
2r	.	2d\	-I	0ryy
2E\	A-	2B\	qui	.
2AA/	-gnus	2.c\	tol-	.
2A\	De-	.	.	.
.	.	4d\	.	.
=26-	=26-	=26-	=26-	=26-
2G\	-i	4e\	.	0ryy
.	.	4B\	.	.
2E\	qui	1e\	.	.
1F\	tol-	.	.	.
.	.	2d\	.	.
=27-	=27-	=27-	=27-	=27-
2C/	-lis	2e\	-lis	0ryy
2C/	pec-	2E/	pec-	.
!	!	!LO:TX:t=P:problem:♯above	!	!
2D/	-ca-	2F#X/	-ca-	.
!	!	!LO:TX:t=P:problem:♯above	!	!
2E\	-ta	2G#X/	-ta	.
=28-	=28-	=28-	=28-	=28-
4AA/	mun-	1A\	mun-	0ryy
4BB/	.	.	.	.
4C/	.	.	.	.
4D/	.	.	.	.
2E\	-di	1G#X/	-di	.
1E\	do-	.	.	.
=29-	=29-	=29-	=29-	=29-
.	.	0rA	.	0ryy
2C/	-na	.	.	.
2D/	no-	.	.	.
2E\	-bis	.	.	.
=30-	=30-	=30-	=30-	=30-
*lig	*	*	*	*
1F\	pa-	2rF	.	0ryy
.	.	1A\	do-	.
*col	*	*	*	*
2.E\	.	.	.	.
!	!	!LO:TX:t=P:problem:♯below	!	!
.	.	2G#X/	-na	.
*Xlig	*	*	*	*
4D/	.	.	.	.
*Xcol	*	*	*	*
=31-	=31-	=31-	=31-	=31-
!LO:LB:g=original	!	!	!	!
2C/	.	2A\	no-	0ryy
!	!	!LO:SIC:v:t=custos c	!	!
2GG#X/	.	2B\	-bis	.
!	!	!LO:LB:g=original	!	!
2AA/	-cem	1c\	pa-	.
1A\	do-	.	.	.
=32-	=32-	=32-	=32-	=32-
.	.	1B\	-cem	0ryy
2G#X\	-na	.	.	.
2A\	no-	1r	.	.
2B\	-bis	.	.	.
=33-	=33-	=33-	=33-	=33-
*lig	*	*	*ij	*
1c\	pa-	2r	.	0ryy
.	.	1e\	do-	.
*col	*	*	*	*
2.B\	.	.	.	.
!	!	!LO:TX:t=P:problem:♯below	!	!
.	.	2d#X\	.	.
*Xlig	*	*	*	*
4A\	.	.	.	.
*Xcol	*	*	*	*
=34-	=34-	=34-	=34-	=34-
4Gny\	.	2e\	.	0ryy
4F#X\	.	.	.	.
1E\	.	2g\	-na	.
.	.	1f#X\	no-	.
2D/	.	.	.	.
=35-	=35-	=35-	=35-	=35-
*lig	*	*	*	*
1C/	.	1.e\	-bis	0ryy
*col	*	*	*	*
2.BB/	.	.	.	.
.	.	1d\ny	pa-	.
*Xlig	*	*	*	*
4AA/	.	.	.	.
*Xcol	*	*	*	*
=36-	=36-	=36-	=36-	=36-
2GG#X/	.	.	.	0ryy
2AA/	-cem	2c\	.	.
2.E\	do-	1B\	-cem	.
4D/	-na	.	.	.
=37-	=37-	=37-	=37-	=37-
2C/	no-	2.e\	do-	0ryy
2GG#X/	-bis	.	.	.
.	.	4d\	.	.
!LO:LB:g=original	!	!	!	!
2AA/	pa-	2c\	.	.
!	!	!LO:TX:t=P:problem:♯below	!	!
2E\	-cem	2G#X/	-na	.
=38-	=38-	=38-	=38-	=38-
2AA/	do-	2A/	no-	0ryy
2E\	-na	2B\	.	.
(4AA/	no-	4c\	.	.
4BB/)	.	4d\	.	.
(4C/	-bis	1e\	-bis	.
4D/)	.	.	.	.
=39-	=39-	=39-	=39-	=39-
1.E\	pa-	.	.	0ryy
.	.	4d\	pa-	.
!	!	!LO:SIC:v:t=custos B	!	!
.	.	4c\	.	.
!	!	!LO:LB:g=original	!	!
.	.	4B\	.	.
.	.	4A\	.	.
2E\	.	2B\	.	.
=40-	=40-	=40-	=40-	=40-
!LO:TX:t=P:problem:brak kreski finalnej	!	!LO:TX:b:t=Laus deo.	!	!
0AA/;;	-cem.	0c#X\	-cem	0ryy
*	*	*	*Xij	*
==	==	==	==	==
*-	*-	*-	*-	*-
!!!system-decoration: [(s1,s2,s3)]
!!!RDF**kern: > = above
!!!RDF**kern: < = below
!!!EED: Andrzej Borzym
!!!EST: 2021-03-23
!!!ENC: Krzysztof Stępień
!!!END: 2021-03-08
